X:1
T:Title
%%score { ( 1 3 ) | 2 }
L:1/8
M:4/4
K:Bb
V:1 treble nm="Grand Piano"
V:3 treble 
V:2 bass 
V:1
 z4 z2[Q:1/4=112] F2 | B3 B B2 F2 | D2 F2 B2 d2 | c2 B2 A2 [=EG]2 |[M:3/4] F6 |[M:1/4] G2 | %6
[M:4/4] c3 c c2 G2 | E2 G2 c2 [Ge]2 | [Gd]2 [CGc]2 [DFB]2 [CEA]2 |[M:3/4] [B,DB]6 |[M:1/4] F2 | %11
[M:4/4] B6 z2 | c6 z2 | d3 c d2 [B=e]2 |[M:3/4] [Af]6 |[M:1/4] e2 |[M:4/4] d3 c B2 [FA]2 | %17
 [EG]3 [EG] [Ge]2 [Ge]2 | [Gd]2 [Gc]2 [FB]2 [EA]2 |[M:3/4] [DB]6 |] %20
V:2
 z4 z2 F,2 | B,3 B, B,2 F,2 | D,2 F,2 B,2[K:treble] [B,F]2 | %3
 [A,CF]2[K:bass] [G,C=E]2 [F,CF]2 [C,B,]2 |[M:3/4] [F,A,]6 |[M:1/4] G,2 |[M:4/4] C3 C C2 G,2 | %7
 E,2 G,2 C2 [C,C]2 | [D,=B,]2 E,2 F,2 F,2 |[M:3/4] B,,6 |[M:1/4] F,2 | %11
[M:4/4] [B,,F,]2 [C,F,]2 [D,F,]2 [B,,F,]2 | [F,A,F]2 [G,B,]2[K:treble] [A,C]2 [F,A,F]2 | %13
 [B,F]3 [A,CF] [B,F]2[K:bass] [G,C]2 |[M:3/4] [F,C]6 |[M:1/4][K:treble] [F,A,F]2 | %16
[M:4/4] [B,F]3[K:bass] [F,A,E] [G,B,D]2 [D,B,]2 | [E,B,]3 [E,B,] [C,C]2 [C,C]2 | %18
 [D,=B,]2 [E,C]2 [F,D]2 [F,C]2 |[M:3/4] [B,,B,]6 |] %20
V:3
 x8 | x8 | x8 | x8 |[M:3/4] x6 |[M:1/4] x2 |[M:4/4] x8 | x8 | x8 |[M:3/4] x6 |[M:1/4] x2 | %11
[M:4/4] D2 E2 F2 [DB]2 | z2 =E2 F2 c2 | x8 |[M:3/4] x6 |[M:1/4] x2 |[M:4/4] x8 | x8 | x8 | %19
[M:3/4] x6 |] %20

